icons/question-17.svg

<svg width="16" height="17" viewBox="0 0 16 17" fill="none" xmlns="http://www.w3.org/2000/svg">
<path fill-rule="evenodd" clip-rule="evenodd" d="M8 3.29138C5.30761 3.29138 3.125 5.47399 3.125 8.16638C3.125 10.8588 5.30761 13.0414 8 13.0414C10.6924 13.0414 12.875 10.8588 12.875 8.16638C12.875 5.47399 10.6924 3.29138 8 3.29138ZM2 8.16638C2 4.85267 4.68629 2.16638 8 2.16638C11.3137 2.16638 14 4.85267 14 8.16638C14 11.4801 11.3137 14.1664 8 14.1664C4.68629 14.1664 2 11.4801 2 8.16638ZM8.75 10.4164C8.75 10.8306 8.41422 11.1664 8 11.1664C7.58579 11.1664 7.25 10.8306 7.25 10.4164C7.25 10.0022 7.58579 9.66638 8 9.66638C8.41422 9.66638 8.75 10.0022 8.75 10.4164ZM7.19062 6.73044C7.251 6.60967 7.33274 6.50601 7.44483 6.43129C7.5534 6.35891 7.72343 6.29138 8 6.29138C8.20981 6.29138 8.41468 6.3563 8.55313 6.46013C8.67655 6.5527 8.75 6.67395 8.75 6.85388C8.75 6.98635 8.71939 7.05174 8.69212 7.09264C8.65811 7.14367 8.59943 7.2001 8.48484 7.2765C8.42755 7.31469 8.36591 7.35181 8.29066 7.39696L8.28606 7.39972L8.28604 7.39973C8.21577 7.4419 8.13278 7.49169 8.05123 7.54606C7.88456 7.65718 7.68543 7.81172 7.53195 8.04197C7.35964 8.30047 7.42951 8.6497 7.68801 8.82201C7.9465 8.99431 8.29574 8.92444 8.46804 8.66595C8.50206 8.6149 8.56074 8.55847 8.67532 8.48208C8.73261 8.44389 8.79425 8.40677 8.8695 8.36162L8.87416 8.35882L8.8742 8.3588C8.94444 8.31665 9.0274 8.26688 9.10891 8.21254C9.27556 8.10142 9.4747 7.94691 9.62818 7.71668C9.78845 7.47634 9.875 7.19017 9.875 6.85388C9.875 6.28381 9.6047 5.84257 9.22812 5.56013C8.86656 5.28896 8.41518 5.16638 8 5.16638C7.52657 5.16638 7.1341 5.28635 6.82079 5.49523C6.511 5.70175 6.31149 5.9731 6.18438 6.22732C6.04545 6.50518 6.15807 6.84307 6.43594 6.982C6.7138 7.12093 7.05169 7.0083 7.19062 6.73044Z" fill="#272431"/>
</svg>

<svg xmlns="http://www.w3.org/2000/svg" width="16" height="17" viewBox="0 0 16 17"><path fill-rule="evenodd" d="M8 3.291a4.875 4.875 0 100 9.75 4.875 4.875 0 000-9.75zM2 8.166a6 6 0 1112 0 6 6 0 01-12 0zm6.75 2.25a.75.75 0 11-1.5 0 .75.75 0 011.5 0zM7.19 6.73a.755.755 0 01.255-.299c.108-.072.278-.14.555-.14.21 0 .415.065.553.17a.46.46 0 01.197.393c0 .132-.03.198-.058.239a.717.717 0 01-.207.184 4.88 4.88 0 01-.194.12l-.005.003c-.07.042-.153.092-.235.146a1.812 1.812 0 00-.519.496.562.562 0 10.936.624.716.716 0 01.207-.184 4.88 4.88 0 01.194-.12l.005-.003c.07-.042.153-.092.235-.146.167-.112.366-.266.52-.496.16-.24.246-.527.246-.863 0-.57-.27-1.011-.647-1.294A2.07 2.07 0 008 5.166c-.473 0-.866.12-1.18.33a1.878 1.878 0 00-.636.731.563.563 0 101.007.503z"/></svg>
